X:364
T:Larry O'Gaff
T:Daniel O'Connell
T:Making Babies by Steam
R:jig
H:See also #399 in D
Z:id:hn-jig-364
M:6/8
L:1/8
K:G
g2G BAG|ded dBG|cec BdB|ABc def|
g2G BAG|ded dBG|cec BdB|ABA G3:|
|:d2g gfg|gfg afd|d2a aga|aga b2a|
gba gfe|dge dBG|cec BdB|ABA G3:||

